src/images/telegram.svg

<svg width="49" height="49" viewBox="0 0 49 49" fill="none" xmlns="http://www.w3.org/2000/svg">
<path d="M24.6363 0.541016C19.9017 0.541016 15.2734 1.94499 11.3368 4.57538C7.40008 7.20578 4.33183 10.9445 2.51998 15.3187C0.708126 19.6928 0.234064 24.5061 1.15774 29.1497C2.08141 33.7933 4.36133 38.0588 7.70919 41.4066C11.0571 44.7545 15.3225 47.0344 19.9661 47.9581C24.6097 48.8817 29.423 48.4077 33.7971 46.5958C38.1713 44.784 41.91 41.7157 44.5404 37.7791C47.1708 33.8424 48.5748 29.2141 48.5748 24.4795C48.5748 21.3359 47.9556 18.223 46.7526 15.3187C45.5496 12.4143 43.7863 9.77534 41.5634 7.55244C39.3405 5.32955 36.7015 3.56625 33.7971 2.36323C30.8928 1.1602 27.7799 0.541016 24.6363 0.541016ZM32.2487 36.8127C32.1594 37.0363 32.0232 37.2382 31.8494 37.4049C31.6755 37.5715 31.468 37.6991 31.2408 37.7789C31.0136 37.8587 30.772 37.889 30.5321 37.8676C30.2922 37.8463 30.0597 37.7739 29.8501 37.6553L23.3508 32.6043L19.1807 36.4536C19.0839 36.525 18.9707 36.571 18.8515 36.5874C18.7323 36.6037 18.6109 36.5898 18.4984 36.5469L19.298 29.3917L19.3219 29.4133L19.3387 29.272C19.3387 29.272 31.0326 18.6242 31.509 18.1717C31.9926 17.7193 31.8322 17.6211 31.8322 17.6211C31.8609 17.0706 30.968 17.6211 30.968 17.6211L15.4726 27.5891L9.02119 25.3916C9.02119 25.3916 8.03013 25.0373 7.93677 24.2545C7.83862 23.4789 9.05231 23.0576 9.05231 23.0576L34.7072 12.8646C34.7072 12.8646 36.8162 11.9262 36.8162 13.4822L32.2487 36.8127Z" fill="white"/>
</svg>

<svg width="49" height="49" fill="none" xmlns="http://www.w3.org/2000/svg"><path d="M24.636.541a23.938 23.938 0 1 0 0 47.877 23.938 23.938 0 0 0 0-47.877zm7.613 36.272a1.688 1.688 0 0 1-2.399.842l-6.5-5.05-4.17 3.849a.72.72 0 0 1-.682.093l.8-7.155.024.021.017-.141s11.694-10.648 12.17-11.1c.484-.453.323-.55.323-.55.029-.551-.864 0-.864 0l-15.495 9.967-6.452-2.197s-.99-.355-1.084-1.137c-.098-.776 1.115-1.197 1.115-1.197l25.655-10.193s2.11-.939 2.11.617l-4.568 23.33z" fill="#fff"/></svg>
